!!!!SEGMENT: pl-kozmzk--mzk-m-159--027_walczynski-franciszek--praeludia-organi-op-5-allegro.krn
!!!cenid: 18xx:2770
!!!COM: Walczyński, Franciszek
!!!COM-rismid: pe30021989
!!!CDT: ~1852-1937
!!!CNT: Polish
!!!GTL: Praeludia organi op. 5
!!!OTL: 27. Allegro
!!!PDT: 1894
!!!AGN: Secular; Prelude
!!!SMS-siglum: PL-KOZmzk
!!!SMS-shelfmark: mzk/m/159
!!!SMS-shelfwork: 027 G
!!!SMS-variant:
!!!SMS-altvar:
!!!NIFC-rismid: 1001118828
!!!URL-scan: https://repozytorium.nifc.pl/islandora/object/pl-kozmzk%3A2265/datastream/PDF/view
!!!ONB-nifc: UWAGA: numeracja plików zgodna z numeracją źrodłową
!!!OMD: 27. Allegro.
!!!key:
**kern	**kern	**dynam
*part2	*part1	*part1
*staff2	*staff1	*
*Iorgan	*Iempty	*
*I"[Organo]	*	*
*clefF4	*clefG2	*
*k[f#c#g#d#a#e#]	*k[f#c#g#d#a#e#]	*
*e-:	*e-:	*
*M2/2	*M2/2	*
*met(c|)	*met(c|)	*
=1	=1	=1
*^	*^	*
1r	1r	4r	4ryy	.
.	.	(4ff#/	(4a#\	f
.	.	4ee#/	4g#\	.
.	.	4dd#/	4f#\	.
=2	=2	=2	=2	=2
1r	1r	1cc##X)	4e#\	.
.	.	.	4b\	.
.	.	.	4a#\	.
.	.	.	4g#\)	.
=3	=3	=3	=3	=3
1r	1r	(4dd#/	(2f##X\	.
.	.	4cc#/	.	.
.	.	4b/	4g#\	.
!	!	!	!LO:N:acc=n#	!
.	.	4b#X/	4f#\	.
=4	=4	=4	=4	=4
2r	2r	4cc#/	2e#\)	.
.	.	4bn/)	.	.
4r	4r	4a#'/	4f#\	p
!LO:TX:b:i:t=Ped.	!	!	!	!
4A#/	4C##X\	4g#'/	4e#\	.
=5	=5	=5	=5	=5
(2A#/	(4D#\	(4f#/	[1d#	.
!	!LO:N:acc=n#	!	!	!
.	4C#\	4f##X/	.	.
4G#/	4BB\	4g#/	.	.
4F##X/	4AA#\	4a#/	.	.
=6	=6	=6	=6	=6
1G#)	4GG#\	4b/	2d#\]	<
!	!LO:N:acc=n#	!	!	!
.	4F#\	4b#X/	.	.
.	4E#\	4cc#/	[2g#\	.
.	4En\)	4cc##X/)	.	[[
=7	=7	=7	=7	=7
2A#/	(1D#	([1dd#	4g#\]	.
.	.	.	4f#\	.
4G#/	.	.	4e#\	.
4F#/	.	.	4d#\	.
=8	=8	=8	=8	=8
2B/	2G#\	2dd#/]	[2e#\	.
[2A#/	4A#\	2cc##X/	8e#\L]	.
.	.	.	8b\	.
.	4AA#\	.	8a#\	.
.	.	.	8g#\J	.
=9	=9	=9	=9	=9
4A#/]	1D#	[1dd#	4f#\	>
4B/	.	.	4g#\	.
4A#/	.	.	4f#\	.
4G#/	.	.	4e#\	.
=10	=10	=10	=10	=10
1F#	1D#;)	1dd#;])	1d#	]
*v	*v	*	*	*
*	*v	*v	*
==	==	==
*-	*-	*-
!!!system-decoration: {(s1,s2)}
!!!EED: Andrzej Borzym
!!!EST: 2021-08-08
!!!AIN: 1 empty 1 organ
!!!ENC: Krzysztof Stępień
!!!END: 2021-07-26
